X: 23323
T: Legacy, The
R: jig
M: 6/8
K: Fmajor
F2F AFA|f2 e fga|F2 F AFA|cAF GDE|
F2 F AFA|f2 e fga|gfd dfd|1 cAF BAG:|2 cAF GAc|
|:d2 d dcA|c2 c cAc|d2 d dcA|cAF GAc|
d2 d dcA|c2 c cde|fef dfd|1 cAF GAc:|2 cAF BAG||

